X:1
T:Long, long ago Sheet music supplied by www.theperfectscores.co:
%%score { 1 | 2 }
L:1/8
Q:1/4=112
M:4/4
I:linebreak $
K:Emin
V:1 treble 
V:2 bass 
V:1
"^Moderato" (!1!G2 !1!G!2!A !3!B2 !2!Bc | d2 !5!ed !2!B4) | (d2 cB A4) | (c2 BA G4) |$ %4
 (!1!G2 GA !3!B2 !2!Bc | d2 ed B4) | (d2 cB !1!A2 !3!BA | G4- G2) z2 |$ (!5!d2 cB A2) !2!DD | %9
 (c2 BA G4) | (d2 cB A2) !2!DD | (c2 BA G4) |$ (!1!G2 GA !3!B2 !2!Bc | d2 ed B4) | %14
 (d2 cB !1!A2 !3!BA | G4- G2) z2 |] %16
V:2
"_legato" !5!G,!1!DB,D G,DB,D | G,DB,D G,DB,D | F,DA,D F,DA,D | G,DB,D G,DB,D |$ G,DB,D G,DB,D | %5
 G,DB,D G,DB,D | F,DA,D F,D!2!CD | G,DB,D [G,B,]2 z2 |$ F,DA,D !5!F,!1!D!2!CA, | G,DB,D G,DB,D | %10
 F,DA,D F,!1!D!2!CA, | G,D!2!CD !3!B,DB,A, |$ G,DB,D G,DB,D | G,DB,D G,DB,D | %14
"_com" F,DA,D F,D"^poco rit."CD | !5![G,B,]D!4!!2![A,C]D !5!!3![G,B,]2 z2 |] %16

